X:3204
T:Farewell to Crumlin
P:The Royal Captives
C:Trad. (24 Country Dances for 1792, A. Bland)
B:RSCDS 32-4
Z:Anselm Lingnau <anselm@strathspey.org>
R:Jig (4x32)
M:6/8
L:1/8
K:G
|:"G"[G2B2g2] G GBc|ded dcB|"Am"[E2A2c2e2] A ABc|"D"BAG FED|
  "G"g2d b2d|"D"a2d "Bm"f2d|"Em"egf "A7"ed^c|"D"d3 "D7"[F3=c3d3]:|
|:"G7"g2d de=f|"C"eg=f edc|"A7"a2e efg|"D"fag fed|
  "Bm"Bfg "B7"b^de|"Em"gBc "Am"Ace|"G"dcB "D7"AGF|"G"G3 G3:|
